!!!COM: Palestrina, Giovanni Perluigi da
!!!OPR: Missa Salvum me fac
!!!OMD: Sanctus
!!!OTL: Hosanna
**kern	**kern	**kern	**kern	**kern
*Ibass	*Itenor	*Icalto	*Icant	*Icant
!Bassus	!Tenor	!Altus	!Cantus 2	!Cantus 1
*clefF4	*clefGv2	*clefG2	*clefG2	*clefG2
*k[b-]	*k[b-]	*k[b-]	*k[b-]	*k[b-]
*G:dor	*G:dor	*G:dor	*G:dor	*G:dor
*M4/2	*M4/2	*M4/2	*M4/2	*M4/2
=86	=86	=86	=86	=86
0r	0G	1r	0r	0r
.	.	[1d	.	.
=87	=87	=87	=87	=87
0r	1.d	1d]	0r	0r
.	.	[1a	.	.
.	2c	.	.	.
=88	=88	=88	=88	=88
0r	2d	2a]	0r	0r
.	2e	2g	.	.
.	2.f	2a	.	.
.	.	2a	.	.
.	4e-	.	.	.
=89	=89	=89	=89	=89
0r	2d	2.b-	0r	0r
.	2c	.	.	.
.	.	4a	.	.
.	2B-	2g	.	.
.	2d	2f	.	.
=90	=90	=90	=90	=90
0r	2c	2e-	0r	0g
.	2B-	2d	.	.
.	1e-	1c	.	.
=91	=91	=91	=91	=91
0r	2.d	4B-	0r	1.dd
.	.	4c	.	.
.	.	4d	.	.
.	4c	4e	.	.
.	2B-	4f	.	.
.	.	4g	.	.
.	2A	4a	.	2cc
.	.	4f	.	.
=92	=92	=92	=92	=92
0r	1G	1b-	0r	2dd
.	.	.	.	2ee
.	2.d	2a	.	2.ff
.	.	[2f	.	.
.	4c	.	.	4ee-
=93	=93	=93	=93	=93
0r	2B-	2f]	0g	2dd
.	2c	2e-	.	2cc
.	1G	2d	.	2.b-
.	.	[2b-	.	.
.	.	.	.	4a
=94	=94	=94	=94	=94
0r	0r	2b-]	1.dd	2g
.	.	2a	.	2f
.	.	2b-	.	2g
.	.	2a	2cc	2a
=95	=95	=95	=95	=95
1r	1G	1g	2dd	1b-
.	.	.	2ee	.
[1D	2.d	4f	2.ff	1a
.	.	4e-	.	.
.	.	4d	.	.
.	4c	4e-	4ee-	.
=96	=96	=96	=96	=96
1D]	2B-	4f	2dd	2.ff
.	.	4g	.	.
.	2A	4a	2cc	.
.	.	4f	.	4ee-
[1G	2B-	1g	2b-	2dd
.	2c	.	2a	2cc
=97	=97	=97	=97	=97
2G]	2d	0r	2g	4b-
.	.	.	.	4cc
2F	2f	.	2a	1dd
2G	1e	.	2b-	.
2A	.	.	4a	2cc#
.	.	.	4g	.
=98	=98	=98	=98	=98
2.B-	2d	0d	2f	1dd
.	1G	.	2g	.
4A	.	.	.	.
2G	.	.	2b-	1r
2F	[2d	.	2a	.
=99	=99	=99	=99	=99
1E	2d]	1g	0r	1g
.	2c	.	.	.
1D	2d	2f	.	[1dd
.	2e	2g	.	.
=100	=100	=100	=100	=100
0r	2.f	1a	1r	2dd]
.	.	.	.	2cc
.	4e	.	.	.
.	2d	2b-	2r	2dd
.	2c	[2a	2a	2ee
=101	=101	=101	=101	=101
0r	1B-	4a]	1.dd	2ff
.	.	4g	.	.
.	.	4g	.	2dd
.	.	4f	.	.
.	1A	1a	.	2ee
.	.	.	2cc	2a
=102	=102	=102	=102	=102
0r	0r	1r	2dd	2b-
.	.	.	2ee	2g
.	.	[1d	2.ff	1a
.	.	.	4ee	.
=103	=103	=103	=103	=103
0r	0G	1d]	2dd	2b
.	.	.	2cc	2cc
.	.	[1g	1b	2.dd
.	.	.	.	8cc
.	.	.	.	8dd
=104	=104	=104	=104	=104
0C	1.c	2g]	2cc	2ee-
.	.	2f	2dd	2dd
.	.	2g	1ee-	1cc
.	2c	2a	.	.
=105	=105	=105	=105	=105
1.G	2.d	1b-	1dd	2r
.	.	.	.	2g
.	4c	.	.	.
.	2B-	2g	1r	1dd
2F	2A	2a	.	.
=106	=106	=106	=106	=106
2G	2G	2b-	0r	0dd
2A	2F	2a	.	.
2.B-	2.G	2.g	.	.
4A	4A	4f	.	.
=107	=107	=107	=107	=107
2G	2B-	2e-	1r	0r
2F	2A	2d	.	.
2.E-	1G	2c	[1g	.
.	.	2B-	.	.
4D	.	.	.	.
=108	=108	=108	=108	=108
1C	2.c	1e-	1g]	2r
.	.	.	.	2g
.	4B-	.	.	.
1D	4A	1d	[1dd	2g
.	4G	.	.	.
.	2A	.	.	2f
=109	=109	=109	=109	=109
0r	2B-	1r	2dd]	2g
.	2A	.	2cc	2a
.	1G	2r	2dd	2.b-
.	.	2g	2ee	.
.	.	.	.	4cc
=110	=110	=110	=110	=110
0r	1d	2a	2ff	4dd
.	.	.	.	4ee
.	.	2f	1dd	4ff
.	.	.	.	4dd
.	1r	2g	.	1ee-
.	.	2a	2cc	.
=111	=111	=111	=111	=111
1G	0r	4b-	1dd	2dd
.	.	4a	.	.
.	.	4g	.	2b-
.	.	4f	.	.
2A	.	4e	2r	2cc
.	.	8d	.	.
.	.	8e	.	.
2F	.	2f	2a	[2dd
=112	=112	=112	=112	=112
2G	1r	1e	2b-	2dd]
2A	.	.	1a	2cc#
1B-	2r	1d	.	1dd
.	2d	.	2g	.
=113	=113	=113	=113	=113
1A	2e	2r	1a	2r
.	2c	2e	.	2a
1r	2d	2f	1r	2a
.	2e	2e	.	2g
=114	=114	=114	=114	=114
1r	2f	2d	0r	1a
.	2e	2c	.	.
1G	1d	2.g	.	1b
.	.	4f	.	.
=115	=115	=115	=115	=115
1A	1c	4e	2r	2.cc
.	.	4d	.	.
.	.	2e	2cc	.
.	.	.	.	4b-
2F	1r	2f	2dd	2a
2G	.	2d	2b-	[2g
=116	=116	=116	=116	=116
2A	1r	2r	2cc	2g]
2B-	.	2d	2dd	2f
1E-	2r	2.g	2.ee-	1b-
.	2G	.	.	.
.	.	4f	4dd	.
=117	=117	=117	=117	=117
0r	2A	4e	2cc	2a
.	.	4c	.	.
.	2B-	1g	2b-	2dd
.	2c	.	1a	2cc
.	2d	2f#	.	2a
=118	=118	=118	=118	=118
1G	4B-	1g	1g	1b-
.	4c	.	.	.
.	4d	.	.	.
.	4e	.	.	.
2A	1f	2r	2r	1a
2F	.	2a	[2dd	.
=119	=119	=119	=119	=119
2G	1e	2b-	2dd]	1r
2A	.	4a	2cc#	.
.	.	4g	.	.
2.B-	2r	2f	2.dd	2r
.	2d	[2B-	.	2f
4A	.	.	4cc	.
=120	=120	=120	=120	=120
1G	2d	4B-]	1b-	2g
.	.	4c	.	.
.	2B-	4d	.	2g
.	.	4e	.	.
1F	2c	1f	2a	2a
.	2d	.	2f	2a
=121	=121	=121	=121	=121
1C	2.e-	2r	1g	2.cc
.	.	2g	.	.
.	4d	.	.	4b-
2F	2c	4f	2r	2a
.	.	4e-	.	.
2G	2B-	4d	[2dd	[2g
.	.	4c	.	.
=122	=122	=122	=122	=122
0D	0A	1d	2dd]	2g]
.	.	.	2dd	4f
.	.	.	.	4e
.	.	1d	1dd	1f#
=123	=123	=123	=123	=123
[0G	[0G	[0d	[0b	[0g
=124	=124	=124	=124	=124
0G]	0G]	0d]	0b]	0g]
==	==	==	==	==
*-	*-	*-	*-	*-
!!!CDT: 1525/^1526/-1594/2/2
!!!OCY: Italia
!!!AGN: Mass (Parody)
!!!AST: renaissance, vocal
!!!ASW: Motet 1538 (Jacquet)
!!!PWK: Masses, Book 2
!!!RNB: Cadence finals: D
!!!YOR: Le Opere Complete, v. 4, p. 126
!!!YOO: Rome, Italy: Fratelli Scalera
!!!END: 1992//
!!!EED: John Miller
!!!YEC: Copyright 2000, John Miller
!!!YEN: United States of America
!!!YEM: Rights to all derivative electronic formats reserved.
!!!YEM: Refer to licensing agreement for further details.
!!!YEM: This file must be accompanied by the licensing agreement.
!!!YEM: A copy of the licensing agreement may be found at http://www.music-cog.ohio-state.edu/HumdrumDatabases/Palestrina/license.txt
!!!EMD: converted to Humdrum by Bret Aarden
